icons/purescript-icon.svg

<?xml version="1.0" encoding="UTF-8"?>
<svg width="256px" height="158px" viewBox="0 0 256 158" version="1.1" xmlns="http://www.w3.org/2000/svg" xmlns:xlink="http://www.w3.org/1999/xlink" preserveAspectRatio="xMidYMid">
    <g>
        <path d="M51.6757015,46.770915 L64.880661,59.978967 L22.5289233,102.32452 L64.880661,144.682442 L51.6757015,157.878124 L2.72148407,108.923907 C0.964946136,107.167369 2.88144564e-05,104.826349 2.88144564e-05,102.327612 C-0.00609772466,99.83506 0.964946136,97.4816704 2.72148407,95.728225 L2.72148407,95.728225 L51.6757015,46.770915 Z M161.882995,116.373731 L181.869799,135.036946 L94.1016591,135.036946 L74.1148551,116.373731 L161.882995,116.373731 Z M204.327507,0 L253.26317,48.9604024 C255.025893,50.7200329 255.993844,53.0548676 256.000029,55.5505122 C256.000029,58.0492493 255.025893,60.396454 253.26317,62.1653619 L253.26317,62.1653619 L204.327507,111.110302 L191.128733,97.9084349 L233.458823,55.5566972 L191.128733,13.201867 L204.327507,0 Z M181.869799,69.6120932 L161.882995,88.2753087 L74.1148551,88.2753087 L94.1016591,69.6120932 L181.869799,69.6120932 Z M161.882995,22.8380857 L181.863614,41.5074862 L94.1016591,41.5074862 L74.1210401,22.8380857 L161.882995,22.8380857 Z" fill="#1D222D"></path>
    </g>
</svg>

<svg xmlns="http://www.w3.org/2000/svg" viewBox="0 0 256 157.878">
  <path fill="#1d222d" d="M51.676 46.77 64.88 59.98l-42.352 42.346 42.352 42.357-13.205 13.196L2.72 108.924A9.258 9.258 0 0 1 0 102.328a9.245 9.245 0 0 1 2.721-6.6zm110.207 69.604 19.987 18.663H94.102l-19.987-18.663zM204.328 0l48.935 48.96A9.27 9.27 0 0 1 256 55.55a9.311 9.311 0 0 1-2.737 6.615l-48.935 48.945-13.2-13.202 42.33-42.351-42.33-42.355zM181.87 69.612l-19.987 18.663H74.115l19.987-18.663zm-19.987-46.774 19.98 18.67H94.103L74.12 22.837z"/>
</svg>
